icons/svg/beach.svg

<svg width="24" height="24" viewBox="0 0 24 24" fill="none" xmlns="http://www.w3.org/2000/svg">
<path d="M17.1346 4.02653C19.104 5.16359 20.5038 7.10115 21.0259 9.41296C21.326 10.742 21.322 12.1321 21.0304 13.479C20.6687 15.1494 18.7187 15.661 17.2386 14.8065L7.74686 9.32645C6.26675 8.47191 5.73481 6.52727 7.00059 5.3789C8.02123 4.45294 9.2231 3.75437 10.5241 3.34979C12.7873 2.64603 15.1651 2.88946 17.1346 4.02653ZM17.1346 4.02653C15.7675 3.23726 12.5811 6.19703 10.0174 10.6374M17.1346 4.02653C18.5016 4.8158 17.5316 9.05523 14.968 13.4956M12.4928 12.0665L8.88243 18.3198" stroke="currentColor" stroke-width="1.5" stroke-linecap="round" stroke-linejoin="round"/>
<path d="M15.9089 21.0451C15.0448 20.1811 14.0191 19.4957 12.8902 19.0281C11.7613 18.5605 10.5514 18.3198 9.32944 18.3198C8.10753 18.3198 6.89759 18.5605 5.76869 19.0281C4.63979 19.4957 3.61405 20.1811 2.75003 21.0451" stroke="currentColor" stroke-width="1.5" stroke-linecap="round" stroke-linejoin="round"/>
</svg>

<svg xmlns="http://www.w3.org/2000/svg" width="24" height="24" fill="none" viewBox="0 0 24 24"><path stroke="currentColor" stroke-linecap="round" stroke-linejoin="round" stroke-width="1.5" d="M17.135 4.027c1.969 1.137 3.369 3.074 3.89 5.386a9.4 9.4 0 0 1 .005 4.066c-.361 1.67-2.311 2.182-3.791 1.328l-9.492-5.48c-1.48-.855-2.012-2.8-.746-3.948a9.4 9.4 0 0 1 3.523-2.03c2.263-.703 4.641-.46 6.61.678m0 0c-1.368-.79-4.554 2.17-7.118 6.61m7.118-6.61c1.367.789.397 5.028-2.167 9.469m-2.475-1.43-3.61 6.254m7.027 2.725a9.306 9.306 0 0 0-13.159 0"/></svg>
